src/icons/typecho.svg

<svg width="110" height="26" viewBox="0 0 110 26" xmlns="http://www.w3.org/2000/svg"><title>typecho-logo</title><path d="M34.75 5.288c-.462 1.254-.99 2.442-2.53 2.574L32 9.468h1.562v5.874c0 1.54-.022 3.652 3.41 3.652 1.034 0 2.134-.308 2.794-.77l-.66-1.694c-.352.22-.902.462-1.496.462-.902 0-1.43-.396-1.43-1.738V9.468h2.706l.22-1.848H36.18V5.288h-1.43zm13.508 12.98c0 2.002-.814 3.234-2.838 3.234-.66 0-1.144-.066-1.562-.22-.396-.154-.506-.374-.506-.792v-1.056l-2.09.176v3.058c.924.462 2.75.726 4.136.726 3.278 0 5.104-1.496 5.104-5.126V7.62H46.63v1.804l.704.044c.418 0 .55.176.55.66v3.982c0 1.144-.814 2.178-2.354 2.178-1.408 0-1.628-1.012-1.628-2.354V7.62H40.03v1.804l.704.044c.374.022.55.154.55.616v4.422c0 2.596 1.21 3.806 3.41 3.806 1.452 0 2.794-.616 3.564-1.716v1.672zM54 20.776c0 .55-.22.682-.638.726l-.726.066v1.672h5.676v-1.738l-1.782-.088v-3.036c.572.352 1.496.638 2.354.638 2.904 0 4.818-2.09 4.818-6.138 0-3.938-1.54-5.588-3.982-5.588-1.87 0-3.08 1.012-3.476 1.76V7.62h-3.718v1.782l.924.066c.418 0 .55.176.55.66v10.648zm6.974-7.678c0 1.914-.638 3.828-2.508 3.828-.572 0-1.364-.176-1.936-.55v-5.06c0-1.012.968-1.892 2.222-1.892 1.166 0 2.222.748 2.222 3.674zm9.812-5.808c-3.608 0-5.434 2.86-5.434 6.116 0 3.278 1.452 5.566 5.192 5.566 2.068 0 3.52-.924 3.872-1.232l-.836-1.782c-.528.374-1.474.968-2.772.968-1.87 0-2.618-1.166-2.706-2.596 2.596-.022 6.27-.594 6.27-3.982 0-1.958-1.43-3.058-3.586-3.058zm1.166 3.102c0 1.694-2.31 2.068-3.938 2.09.066-1.628.858-3.322 2.618-3.322.792 0 1.32.418 1.32 1.232zm9.24 6.578c-1.958 0-2.838-1.54-2.838-3.938 0-2.442.902-3.762 2.662-3.762.33 0 .594.044.858.132.396.132.462.33.462.748v1.056l2.024-.154v-2.86c-1.056-.572-2.112-.902-3.432-.902-2.486 0-5.236 1.54-5.236 6.006 0 3.652 1.914 5.698 5.148 5.698 1.628 0 2.97-.572 3.828-1.276l-.946-1.694c-.902.66-1.672.946-2.53.946zm6.094-.748c0 .55-.22.682-.638.726l-.726.066v1.672h5.236v-1.76l-1.254-.066v-5.324c0-1.144.814-2.222 2.354-2.222 1.408 0 1.716 1.034 1.716 2.376v4.532c0 .55-.22.682-.638.726l-.726.066v1.672h5.236v-1.76l-1.254-.066v-5.742c0-2.596-1.298-3.828-3.498-3.828-1.452 0-2.552.682-3.212 1.628V3h-3.916v1.826l.77.044c.418.022.55.154.55.638v10.714zm11.638-3.08c0 3.982 1.936 5.874 4.884 5.874 2.904 0 5.258-1.936 5.258-6.16 0-5.06-3.278-5.566-4.906-5.566-2.266 0-5.236 1.276-5.236 5.852zm5.06 3.938c-2.112 0-2.398-2.2-2.398-4.246 0-2.112.704-3.608 2.442-3.608 1.76 0 2.354 1.518 2.354 3.982 0 2.288-.682 3.872-2.398 3.872zM13 26C3.368 26 0 22.631 0 13S3.368 0 13 0s13 3.369 13 13-3.368 13-13 13zM6 9h14V7H6v2zm0 5h10v-2H6v2zm0 5h12v-2H6v2z" fill-rule="evenodd"/></svg>

<?xml version="1.0" encoding="UTF-8" standalone="no"?>
<svg width="110px" height="26px" viewBox="0 0 110 26" version="1.1" xmlns="http://www.w3.org/2000/svg" xmlns:xlink="http://www.w3.org/1999/xlink" xmlns:sketch="http://www.bohemiancoding.com/sketch/ns">
    <title>typecho-logo</title>
    <description>Created with Sketch (http://www.bohemiancoding.com/sketch)</description>
    <defs></defs>
    <g id="Page-1" stroke="none" stroke-width="1" fill="none" fill-rule="evenodd" sketch:type="MSPage">
        <path d="M34.75,5.288 C34.288,6.542 33.76,7.73 32.22,7.862 L32,9.468 L33.562,9.468 L33.562,15.342 C33.562,16.882 33.54,18.994 36.972,18.994 C38.006,18.994 39.106,18.686 39.766,18.224 L39.106,16.53 C38.754,16.75 38.204,16.992 37.61,16.992 C36.708,16.992 36.18,16.596 36.18,15.254 L36.18,9.468 L38.886,9.468 L39.106,7.62 L36.18,7.62 L36.18,5.288 L34.75,5.288 Z M48.258,18.268 C48.258,20.27 47.444,21.502 45.42,21.502 C44.76,21.502 44.276,21.436 43.858,21.282 C43.462,21.128 43.352,20.908 43.352,20.49 L43.352,19.434 L41.262,19.61 L41.262,22.668 C42.186,23.13 44.012,23.394 45.398,23.394 C48.676,23.394 50.502,21.898 50.502,18.268 L50.502,7.62 L46.63,7.62 L46.63,9.424 L47.334,9.468 C47.752,9.468 47.884,9.644 47.884,10.128 L47.884,14.11 C47.884,15.254 47.07,16.288 45.53,16.288 C44.122,16.288 43.902,15.276 43.902,13.934 L43.902,7.62 L40.03,7.62 L40.03,9.424 L40.734,9.468 C41.108,9.49 41.284,9.622 41.284,10.084 L41.284,14.506 C41.284,17.102 42.494,18.312 44.694,18.312 C46.146,18.312 47.488,17.696 48.258,16.596 L48.258,18.268 Z M54,20.776 C54,21.326 53.78,21.458 53.362,21.502 L52.636,21.568 L52.636,23.24 L58.312,23.24 L58.312,21.502 L56.53,21.414 L56.53,18.378 C57.102,18.73 58.026,19.016 58.884,19.016 C61.788,19.016 63.702,16.926 63.702,12.878 C63.702,8.94 62.162,7.29 59.72,7.29 C57.85,7.29 56.64,8.302 56.244,9.05 L56.244,7.62 L52.526,7.62 L52.526,9.402 L53.45,9.468 C53.868,9.468 54,9.644 54,10.128 L54,20.776 Z M60.974,13.098 C60.974,15.012 60.336,16.926 58.466,16.926 C57.894,16.926 57.102,16.75 56.53,16.376 L56.53,11.316 C56.53,10.304 57.498,9.424 58.752,9.424 C59.918,9.424 60.974,10.172 60.974,13.098 Z M70.786,7.29 C67.178,7.29 65.352,10.15 65.352,13.406 C65.352,16.684 66.804,18.972 70.544,18.972 C72.612,18.972 74.064,18.048 74.416,17.74 L73.58,15.958 C73.052,16.332 72.106,16.926 70.808,16.926 C68.938,16.926 68.19,15.76 68.102,14.33 C70.698,14.308 74.372,13.736 74.372,10.348 C74.372,8.39 72.942,7.29 70.786,7.29 Z M71.952,10.392 C71.952,12.086 69.642,12.46 68.014,12.482 C68.08,10.854 68.872,9.16 70.632,9.16 C71.424,9.16 71.952,9.578 71.952,10.392 Z M81.192,16.97 C79.234,16.97 78.354,15.43 78.354,13.032 C78.354,10.59 79.256,9.27 81.016,9.27 C81.346,9.27 81.61,9.314 81.874,9.402 C82.27,9.534 82.336,9.732 82.336,10.15 L82.336,11.206 L84.36,11.052 L84.36,8.192 C83.304,7.62 82.248,7.29 80.928,7.29 C78.442,7.29 75.692,8.83 75.692,13.296 C75.692,16.948 77.606,18.994 80.84,18.994 C82.468,18.994 83.81,18.422 84.668,17.718 L83.722,16.024 C82.82,16.684 82.05,16.97 81.192,16.97 Z M87.286,16.222 C87.286,16.772 87.066,16.904 86.648,16.948 L85.922,17.014 L85.922,18.686 L91.158,18.686 L91.158,16.926 L89.904,16.86 L89.904,11.536 C89.904,10.392 90.718,9.314 92.258,9.314 C93.666,9.314 93.974,10.348 93.974,11.69 L93.974,16.222 C93.974,16.772 93.754,16.904 93.336,16.948 L92.61,17.014 L92.61,18.686 L97.846,18.686 L97.846,16.926 L96.592,16.86 L96.592,11.118 C96.592,8.522 95.294,7.29 93.094,7.29 C91.642,7.29 90.542,7.972 89.882,8.918 L89.882,3 L85.966,3 L85.966,4.826 L86.736,4.87 C87.154,4.892 87.286,5.024 87.286,5.508 L87.286,16.222 Z M98.924,13.142 C98.924,17.124 100.86,19.016 103.808,19.016 C106.712,19.016 109.066,17.08 109.066,12.856 C109.066,7.796 105.788,7.29 104.16,7.29 C101.894,7.29 98.924,8.566 98.924,13.142 Z M103.984,17.08 C101.872,17.08 101.586,14.88 101.586,12.834 C101.586,10.722 102.29,9.226 104.028,9.226 C105.788,9.226 106.382,10.744 106.382,13.208 C106.382,15.496 105.7,17.08 103.984,17.08 Z" id="typecho" fill="#000000" sketch:type="MSShapeGroup"></path>
        <path d="M13,26 C3.36833333,26 0,22.631 0,13 C0,3.36866667 3.36833333,0 13,0 C22.6316667,0 26,3.36866667 26,13 C26,22.631 22.6316667,26 13,26 Z M6,9 L20,9 L20,7 L6,7 L6,9 Z M6,14 L16,14 L16,12 L6,12 L6,14 Z M6,19 L18,19 L18,17 L6,17 L6,19 Z" id="icon" fill="#000000" sketch:type="MSShapeGroup"></path>
    </g>
</svg>
